assets/images/addtocartwhite.svg

<svg width="20" height="20" viewBox="0 0 20 20" fill="none" xmlns="http://www.w3.org/2000/svg">
<path d="M10.0176 14.9538L10.0176 11.7129" stroke="white" stroke-width="1.25" stroke-miterlimit="10" stroke-linecap="round" stroke-linejoin="round"/>
<path d="M11.6029 13.3333L8.36197 13.3333" stroke="white" stroke-width="1.25" stroke-miterlimit="10" stroke-linecap="round" stroke-linejoin="round"/>
<path d="M7.34162 1.6665L4.32495 4.6915" stroke="white" stroke-width="1.25" stroke-miterlimit="10" stroke-linecap="round" stroke-linejoin="round"/>
<path d="M12.6583 1.6665L15.675 4.6915" stroke="white" stroke-width="1.25" stroke-miterlimit="10" stroke-linecap="round" stroke-linejoin="round"/>
<path d="M1.66663 6.54167C1.66663 5 2.49163 4.875 3.51663 4.875H16.4833C17.5083 4.875 18.3333 5 18.3333 6.54167C18.3333 8.33333 17.5083 8.20833 16.4833 8.20833H3.51663C2.49163 8.20833 1.66663 8.33333 1.66663 6.54167Z" stroke="white" stroke-width="1.25"/>
<path d="M2.91663 8.3335L4.09163 15.5335C4.35829 17.1502 4.99996 18.3335 7.38329 18.3335H12.4083C15 18.3335 15.3833 17.2002 15.6833 15.6335L17.0833 8.3335" stroke="white" stroke-width="1.25" stroke-linecap="round"/>
</svg>

<svg width="20" height="20" fill="none" xmlns="http://www.w3.org/2000/svg"><path d="M10.018 14.954v-3.241M11.603 13.333H8.362M7.342 1.667 4.325 4.69M12.658 1.667l3.017 3.024" stroke="#fff" stroke-width="1.25" stroke-miterlimit="10" stroke-linecap="round" stroke-linejoin="round"/><path d="M1.667 6.542c0-1.542.825-1.667 1.85-1.667h12.966c1.025 0 1.85.125 1.85 1.667 0 1.791-.825 1.666-1.85 1.666H3.517c-1.025 0-1.85.125-1.85-1.666Z" stroke="#fff" stroke-width="1.25"/><path d="m2.917 8.334 1.175 7.2c.266 1.616.908 2.8 3.291 2.8h5.025c2.592 0 2.975-1.134 3.275-2.7l1.4-7.3" stroke="#fff" stroke-width="1.25" stroke-linecap="round"/></svg>
